icons/svg/sort-descending.svg

﻿<?xml version="1.0" encoding="utf-8"?>
<!DOCTYPE svg PUBLIC "-//W3C//DTD SVG 1.1//EN" "http://www.w3.org/Graphics/SVG/1.1/DTD/svg11.dtd">
<svg xmlns="http://www.w3.org/2000/svg" xmlns:xlink="http://www.w3.org/1999/xlink" version="1.1" baseProfile="full" width="24" height="24" viewBox="0 0 24.00 24.00" enable-background="new 0 0 24.00 24.00" xml:space="preserve">
	<path fill="#000000" fill-opacity="1" stroke-width="0.2" stroke-linejoin="round" d="M 9.9994,12.998L 9.9994,10.998L 18,11L 18,13L 9.9994,12.998 Z M 9.9994,18.998L 9.9994,16.998L 14,17L 14,19L 9.9994,18.998 Z M 9.99999,7.00004L 9.9994,4.99805L 21.9994,4.99805L 22,7.00004L 9.99999,7.00004 Z M 5.9994,16.998L 8.4994,16.998L 4.9994,20.498L 1.4994,16.998L 3.9994,16.998L 4,4.00001L 5.99999,4.00001L 5.9994,16.998 Z "/>
</svg>

<svg xmlns="http://www.w3.org/2000/svg" version="1.1" baseProfile="full" width="24" height="24" viewBox="0 0 24.00 24.00" xml:space="preserve"><path fill="#000" fill-opacity="1" stroke-width=".2" stroke-linejoin="round" d="M10 12.998v-2L18 11v2l-8-.002zm0 6v-2L14 17v2l-4-.002zM10 7V4.998h12V7H10zm-4 9.998h2.5l-3.5 3.5-3.5-3.5H4V4h2v12.998z"/></svg>
